{ "compressionlevel":-1,
 "height":24,
 "infinite":false,
 "layers":[
        {
         "draworder":"topdown",
         "id":2,
         "name":"\u30aa\u30d6\u30b8\u30a7\u30af\u30c8\u30ec\u30a4\u30e4\u30fc1",
         "objects":[
                {
                 "height":0,
                 "id":1,
                 "name":"",
                 "opacity":1,
                 "polyline":[
                        {
                         "x":0,
                         "y":0
                        }, 
                        {
                         "x":352,
                         "y":0
                        }],
                 "rotation":0,
                 "type":"",
                 "visible":true,
                 "width":0,
                 "x":32,
                 "y":704
                }, 
                {
                 "height":0,
                 "id":2,
                 "name":"Start",
                 "opacity":1,
                 "point":true,
                 "rotation":0,
                 "type":"",
                 "visible":true,
                 "width":0,
                 "x":128,
                 "y":576
                }, 
                {
                 "height":0,
                 "id":3,
                 "name":"",
                 "opacity":1,
                 "polyline":[
                        {
                         "x":0,
                         "y":0
                        }, 
                        {
                         "x":64,
                         "y":-192
                        }, 
                        {
                         "x":320,
                         "y":-192
                        }, 
                        {
                         "x":320,
                         "y":-160
                        }, 
                        {
                         "x":352,
                         "y":-160
                        }, 
                        {
                         "x":352,
                         "y":-128
                        }, 
                        {
                         "x":384,
                         "y":-128
                        }, 
                        {
                         "x":384,
                         "y":-96
                        }, 
                        {
                         "x":416,
                         "y":-96
                        }, 
                        {
                         "x":416,
                         "y":-64
                        }, 
                        {
                         "x":448,
                         "y":-64
                        }, 
                        {
                         "x":448,
                         "y":-32
                        }, 
                        {
                         "x":480,
                         "y":-32
                        }, 
                        {
                         "x":480,
                         "y":0
                        }, 
                        {
                         "x":736,
                         "y":0
                        }],
                 "rotation":0,
                 "type":"",
                 "visible":true,
                 "width":0,
                 "x":448,
                 "y":704
                }, 
                {
                 "height":0,
                 "id":4,
                 "name":"Enemy",
                 "opacity":1,
                 "point":true,
                 "properties":[
                        {
                         "name":"enemy",
                         "type":"file",
                         "value":""
                        }],
                 "rotation":0,
                 "type":"",
                 "visible":true,
                 "width":0,
                 "x":992,
                 "y":544
                }],
         "opacity":1,
         "type":"objectgroup",
         "visible":true,
         "x":0,
         "y":0
        }],
 "nextlayerid":3,
 "nextobjectid":5,
 "orientation":"orthogonal",
 "renderorder":"right-down",
 "tiledversion":"1.12.2",
 "tileheight":32,
 "tilesets":[],
 "tilewidth":32,
 "type":"map",
 "version":"1.10",
 "width":64
}